X: 17059
T: Heather Mixture
R: waltz
M: 3/4
K: Cmajor
E3 G3|AG>C E3|C2D EAG|D3 G3|
E3 G3|GAB c3|d2c B2A|(G3 G3)|
E3 G3|AG>C E3|C2D EAG|D3 G3|
EDB, CDE|G2E A3|G2E FE>D|(C3 C2)||
K:G
D|DG>E F3|DA>F G3|DEG FED|c3 F3|
Dc>_A B2A|DB>F A2G|FAG EGF|(D3 D3)|
DG>E F3|DA>F G3|DEF GAB|e3 E3|
cB>A _E3|BAG D^CD|EFG ABD|(G3 G3)||
K:F
|A3 c3|FE>D E3|DC>B, C2B|BA>^G A3|
A3 c3|FE>D E3|AGc BAB|(c3 c3)|
A3 c3|FE>D E3|DC>B, C2B|AFd c3|
c2^c d2A|G3 D2^D|E3 A2G|(F3 F3)||

